static/images/partners/sfeir.svg

<svg height="66" viewBox="0 0 134 66" width="134" xmlns="http://www.w3.org/2000/svg" xmlns:xlink="http://www.w3.org/1999/xlink"><linearGradient id="a" x1="171.020601%" x2="16.315516%" y1="122.999837%" y2="17.271611%"><stop offset="0" stop-color="#ffcda5"/><stop offset="1" stop-color="#f00b51"/></linearGradient><g fill="none" fill-rule="evenodd"><path d="m2 5h130v56h-130z" fill="url(#a)" transform="matrix(.99756405 -.06975647 .06975647 .99756405 -2.138755 4.75407)"/><path d="m122 16.7573796v34.2426204h-8.74833v-3.8278153h.959445c1.110689 0 2.223509-.0195254 3.33292.0091396.440101.0112167.536386-.140417.535534-.5417269-.012781-5.7471236-.008947-11.4942472-.008947-17.2417862 0-2.7476851-.013207-5.4957856.013633-8.2434707.004687-.496029-.153374-.6036266-.62841-.5936562-1.383356.028665-2.765434.009555-4.19821.009555v-3.8128597zm-101.2350547-.0182791v3.8057973c-.155505.0087241-.3242173.0249261-.4937817.0253415-1.2402059.0020772-2.4799858.0228489-3.7189135-.0103859-.4835568-.0128784-.6262806.1109211-.6241504.5973951.0178938 5.3387513.009799 10.6775026.009799 16.0166693 0 3.1402709.0093729 6.2805418-.0089469 9.4212281-.0025562.442438.1060843.6003031.5866587.5878401 1.2376497-.0319885 2.4778556-.0103859 3.7189136-.0103859h.5436285v3.8062127h-8.7781526v-34.2397123zm13.4820734 5.5971517c1.2892006.1138291 2.5647679.3672443 3.9067977.5666529-.3395549 1.3227441-.6467306 2.5183652-.961149 3.7414049-.7638918-.1566189-1.490292-.3340095-2.2269172-.4503312-1.509464-.2376287-3.0227623-.2509226-4.4840835.2426139-.5206224.1757288-1.0378364.4495003-1.4617473.7914031-1.0386885.8404243-.9219532 2.3177101.2441216 2.9757587.6330972.3568584 1.3433078.5986414 2.038181.8350237 1.6538919.5620832 3.3572045.998705 4.9701965 1.6534301 2.6448637 1.0738987 4.1564578 3.0127325 4.1471282 5.8912795-.0098423 2.9030576-1.5244187 4.8722181-4.144998 6.1019048-2.1642892 1.0144915-4.4678939 1.1004865-6.8034517.9338972-1.5997847-.11466-3.1480183-.4495003-4.613174-1.1121187-.3340163-.1508028-.4784442-.2891425-.3744902-.6987611.2786309-1.0946705.4835568-2.2067892.7319388-3.3803922.2338966.1125828.4277453.2064711.6228722.3003593 2.3615463 1.1287361 4.841106 1.5196601 7.4114125.9455294.7579272-.1694974 1.5196889-.5487893 2.1451173-1.0070137 1.3352131-.976687 1.2346674-2.9088738-.2027956-3.7393277-.931326-.537988-1.9704405-.9135409-2.9903831-1.2895093-1.1268789-.4158502-2.2933797-.7278416-3.4283534-1.1225046-2.0190092-.7008383-3.6196459-1.8594857-4.2625421-3.963247-.9551843-3.126977.5832504-6.0782251 3.8663238-7.414263 1.8801198-.7652308 3.8607852-.9783488 5.8699955-.801789zm56.7465558.7390583v21.8032592h-3.8509863v-17.8844637h-6.3991386v-3.9187955zm17.2798045-.388016c1.126027.2043939 2.210728.531341 3.260919 1.0896852-.515084 1.1997754-1.023351 2.3808563-1.545677 3.5955873-.451604-.1694973-.881053-.3290243-1.309651-.4914592-2.815706-1.072237-5.174696-.3772147-7.12 1.7934316-.549593.6127661-1.029316 1.2866012-1.505204 1.956282-.1256818.1744825-.1601911.438699-.1601911.6617874-.0093729 4.3338148-.0076687 8.6672141-.0076687 13.000198v.579116h-3.8569509v-21.8011821h3.8539686v3.3288783c.2922641-.3805382.4959121-.6509862.7059501-.9172798 1.961494-2.4975934 4.55225-3.3625285 7.684505-2.7950447zm-50.9979821-6.8401323c-.361709 1.0984094-.7008378 2.1241176-1.0335759 3.1357011-.9939541-.1769752-1.9482864-.4033871-2.9162519-.5018451-.7264003-.0743628-1.4813453-.0481904-2.2051892.0490213-.7468502.1005352-1.2892007.5973951-1.4106224 1.316928-.1729727 1.02737-.2138727 2.0759272-.3178267 3.17766h5.7498518v3.93749h-5.6910581v17.9064818h-4.0520778v-17.8782322h-2.7756583v-3.9383209h2.7603209c.0242843-.4237434.0230062-.7963883.0737051-1.1623863.1427238-1.0547887.2185591-2.1295183.4835567-3.1560574.4827047-1.8615629 1.7335616-3.034335 3.6788657-3.4638945 2.5950168-.5741308 5.1082338-.1611887 7.6559601.5774542zm19.3814657 25.227272v3.7733934h-17.3867409v-3.7733934zm.0029822-9.004547v3.8141059h-17.3803502v-3.8141059zm-.0042604-8.976713v3.7742242h-17.3846106v-3.7742242zm12.485563-8.0868575c1.4089182.0033292 2.5298326 1.1034003 2.5319688 2.4872132.0029763 1.4232793-1.1094172 2.5225195-2.545176 2.5171387-1.3641839-.0054205-2.4829681-1.1503585-2.4791435-2.537495.0038442-1.3651184 1.119646-2.4697592 2.4923507-2.4668569z" fill="#fff"/></g></svg>

<?xml version="1.0" encoding="UTF-8"?>
<svg width="134px" height="66px" viewBox="0 0 134 66" version="1.1" xmlns="http://www.w3.org/2000/svg" xmlns:xlink="http://www.w3.org/1999/xlink">
    <!-- Generator: Sketch 58 (84663) - https://sketch.com -->
    <title>Group 25</title>
    <desc>Created with Sketch.</desc>
    <defs>
        <linearGradient x1="171.020601%" y1="122.999837%" x2="16.315516%" y2="17.2716107%" id="linearGradient-1">
            <stop stop-color="#FFCDA5" offset="0%"></stop>
            <stop stop-color="#F00B51" offset="100%"></stop>
        </linearGradient>
    </defs>
    <g id="Page-1" stroke="none" stroke-width="1" fill="none" fill-rule="evenodd">
        <g id="Home-Desktop" transform="translate(-70.000000, -19.000000)">
            <g id="Nav+Header">
                <g id="Group-15" transform="translate(70.000000, 19.000000)">
                    <g id="Group-25">
                        <rect id="Rectangle-Copy" fill="url(#linearGradient-1)" transform="translate(67.000000, 33.000000) rotate(-4.000000) translate(-67.000000, -33.000000) " x="2" y="5" width="130" height="56"></rect>
                        <path d="M122,16.7573796 L122,51 L113.25167,51 L113.25167,47.1721847 L114.211115,47.1721847 C115.321804,47.1721847 116.434624,47.1526593 117.544035,47.1813243 C117.984136,47.192541 118.080421,47.0409073 118.079569,46.6395974 C118.066788,40.8924738 118.070622,35.1453502 118.070622,29.3978112 C118.070622,26.6501261 118.057415,23.9020256 118.084255,21.1543405 C118.088942,20.6583115 117.930881,20.5507139 117.455845,20.5606843 C116.072489,20.5893493 114.690411,20.5702393 113.257635,20.5702393 L113.257635,16.7573796 L122,16.7573796 Z M20.7649453,16.7391005 L20.7649453,20.5448978 C20.6094403,20.5536219 20.440728,20.5698239 20.2711636,20.5702393 C19.0309577,20.5723165 17.7911778,20.5930882 16.5522501,20.5598534 C16.0686933,20.546975 15.9259695,20.6707745 15.9280997,21.1572485 C15.9459935,26.4959998 15.9378987,31.8347511 15.9378987,37.1739178 C15.9378987,40.3141887 15.9472716,43.4544596 15.9289518,46.5951459 C15.9263956,47.0375839 16.0350361,47.195449 16.5156105,47.182986 C17.7532602,47.1509975 18.9934661,47.1726001 20.2345241,47.1726001 L20.7781526,47.1726001 L20.7781526,50.9788128 L12,50.9788128 L12,16.7391005 L20.7649453,16.7391005 Z M34.2470187,22.3362522 C35.5362193,22.4500813 36.8117866,22.7034965 38.1538164,22.9029051 C37.8142615,24.2256492 37.5070858,25.4212703 37.1926674,26.64431 C36.4287756,26.4876911 35.7023754,26.3103005 34.9657502,26.1939788 C33.4562862,25.9563501 31.9429879,25.9430562 30.4816667,26.4365927 C29.9610443,26.6123215 29.4438303,26.886093 29.0199194,27.2279958 C27.9812309,28.0684201 28.0979662,29.5457059 29.264041,30.2037545 C29.8971382,30.5606129 30.6073488,30.8023959 31.302222,31.0387782 C32.9561139,31.6008614 34.6594265,32.0374832 36.2724185,32.6922083 C38.9172822,33.766107 40.4288763,35.7049408 40.4195467,38.5834878 C40.4097044,41.4865454 38.895128,43.4557059 36.2745487,44.6853926 C34.1102595,45.6998841 31.8066548,45.7858791 29.471097,45.6192898 C27.8713123,45.5046298 26.3230787,45.1697895 24.857923,44.5071711 C24.5239067,44.3563683 24.3794788,44.2180286 24.4834328,43.80841 C24.7620637,42.7137395 24.9669896,41.6016208 25.2153716,40.4280178 C25.4492682,40.5406006 25.6431169,40.6344889 25.8382438,40.7283771 C28.1997901,41.8571132 30.6793498,42.2480372 33.2496563,41.6739065 C34.0075835,41.5044091 34.7693452,41.1251172 35.3947736,40.6668928 C36.7299867,39.6902058 36.629441,37.758019 35.191978,36.9275651 C34.260652,36.3895771 33.2215375,36.0140242 32.2015949,35.6380558 C31.074716,35.2222056 29.9082152,34.9102142 28.7732415,34.5155512 C26.7542323,33.8147129 25.1535956,32.6560655 24.5106994,30.5523042 C23.5555151,27.4253272 25.0939498,24.4740791 28.3770232,23.1380412 C30.257143,22.3728104 32.2378084,22.1596924 34.2470187,22.3362522 Z M90.9935745,23.0753105 L90.9935745,44.8785697 L87.1425882,44.8785697 L87.1425882,26.994106 L80.7434496,26.994106 L80.7434496,23.0753105 L90.9935745,23.0753105 Z M108.273379,22.6872945 C109.399406,22.8916884 110.484107,23.2186355 111.534298,23.7769797 C111.019214,24.9767551 110.510947,26.157836 109.988621,27.372567 C109.537017,27.2030697 109.107568,27.0435427 108.67897,26.8811078 C105.863264,25.8088708 103.504274,26.5038931 101.55897,28.6745394 C101.009377,29.2873055 100.529654,29.9611406 100.053766,30.6308214 C99.9280842,30.8053039 99.8935749,31.0695204 99.8935749,31.2926088 C99.884202,35.6264236 99.8859062,39.9598229 99.8859062,44.2928068 L99.8859062,44.8719228 L96.0289553,44.8719228 L96.0289553,23.0707407 L99.8829239,23.0707407 L99.8829239,26.399619 C100.175188,26.0190808 100.378836,25.7486328 100.588874,25.4823392 C102.550368,22.9847458 105.141124,22.1198107 108.273379,22.6872945 Z M57.2753969,15.8471622 C56.9136879,16.9455716 56.5745591,17.9712798 56.241821,18.9828633 C55.2478669,18.8058881 54.2935346,18.5794762 53.3255691,18.4810182 C52.5991688,18.4066554 51.8442238,18.4328278 51.1203799,18.5300395 C50.3735297,18.6305747 49.8311792,19.1274346 49.7097575,19.8469675 C49.5367848,20.8743375 49.4958848,21.9228947 49.3919308,23.0246275 L55.1417826,23.0246275 L55.1417826,26.9621175 L49.4507245,26.9621175 L49.4507245,44.8685993 L45.3986467,44.8685993 L45.3986467,26.9903671 L42.6229884,26.9903671 L42.6229884,23.0520462 L45.3833093,23.0520462 C45.4075936,22.6283028 45.4063155,22.2556579 45.4570144,21.8896599 C45.5997382,20.8348712 45.6755735,19.7601416 45.9405711,18.7336025 C46.4232758,16.8720396 47.6741327,15.6992675 49.6194368,15.269708 C52.2144536,14.6955772 54.7276706,15.1085193 57.2753969,15.8471622 Z M76.6568626,41.0744342 L76.6568626,44.8478276 L59.2701217,44.8478276 L59.2701217,41.0744342 L76.6568626,41.0744342 Z M76.6598448,32.0698872 L76.6598448,35.8839931 L59.2794946,35.8839931 L59.2794946,32.0698872 L76.6598448,32.0698872 Z M76.6555844,23.0931742 L76.6555844,26.8673984 L59.2709738,26.8673984 L59.2709738,23.0931742 L76.6555844,23.0931742 Z M89.1411474,15.0063167 C90.5500656,15.0096459 91.67098,16.109717 91.6731162,17.4935299 C91.6760925,18.9168092 90.563699,20.0160494 89.1279402,20.0106686 C87.7637563,20.0052481 86.6449721,18.8603101 86.6487967,17.4731736 C86.6526409,16.1080552 87.7684427,15.0034144 89.1411474,15.0063167 Z" id="Combined-Shape" fill="#FFFFFF"></path>
                    </g>
                </g>
            </g>
        </g>
    </g>
</svg>
